X: 13
L:1/8
M:2/4
K:G
fdef|g/f/g/a/ ge|d/e/d/c/ B/A/G/A/|BB/d/ BB/d/|BGAB|
c/B/c/d/ cB|A3 (3A/B/c/|da/g/ fa/g/|fdef|g/f/g/a/ g/f/e/f/|
[d3g3] (g/a/)||ba g/f/e/f/|ag ff/g/|ag f/e/d/e/|fe d/B/G/A/|BB/d/ BB/d/|



